X: 7
T: the Coterie
R: reel
M: C
L: 1/8
Z: 2011 John Chambers <jc:trillian.mit.edu>
B: William Randall eds "Twenty Four Country Dances", London 1771, p.6
K: Gm
|: dcBA G2B2 | A2c2 B2d2 | c2e2 d2B2 | A2G2 ^F2D2 |\
   dcBA B2d2 | c2e2 d2g2 | f2e2 d2c2 | B4 B,4 :|
|: dc=Bd c2C2 | c_BAc B2d2 | c2B2 A2G2 | A4 D4 |\
   G2B2 A2e2 | d2g2 d2B2 | A2G2 {B}A2G^F | G4 G,4 :|
% - - - - - - - - - - - - - - - - - - - - - - - - -
%%begintext align
%% Hands 6 round : & Back again : the 1st
%% Gent.n Allemande with the 2d Lady
%% while the 1st Lady Allemande with the
%% 2d Gent.n Ditto the same with the 3d
%% Cu. Hey all round lead up the middle
%% cast off then Allemande with your
%% Partner
%%endtext
% - - - - - - - - - - - - - - - - - - - - - - - - -
